X: 1070
T: Amateur Dentist, The
R: reel
M: 4/4
K: Amajor
|:F2cA BAB(c|c)FcA BAFE|F2cA BAB(=c|c)BBA AFFE|
F2cA BAB(c|c)FcA BAFE|F2cA BAB(f|f)eec cBce:|
|:z2a2 f3(e|e)ccB BAAF|=cBBA AFFE|FABA Bcec|
z2a2 f3(e|e)ccB BAAF|=cBBA AFFE|FABE F4:|

